X:1
T:Title
%%score { ( 1 3 ) | ( 2 4 ) }
L:1/8
Q:1/4=100
M:4/4
K:Eb
V:1 treble nm="Grand Piano"
V:3 treble 
V:2 bass 
V:4 bass 
V:1
 G4 _G2 =G2 | B2 A2 [EG]2 [DF]2 | E4 z4 | [B,EG]8 | [GB]4 [_G=A]2 [FB]2 | [Fd]2 c2 B2 G2 | %6
w: Caleb~Simper * *||||||
 F2 F2 G2 =A2 | [DB]8 | [DA]4 [DA]2 [DA]2 | z4 E4[K:bass] | [=EB]4 [EB]2 [EB]2 | [C=EA]2 [EG]2 F4 | %12
w: ||||||
 d4 e2 [Gc]2 | [GB]2 A2 G2 F2 | E4 [EG]2 z2 | [G,E]8 |] %16
w: ||||
V:2
 [E,B,E]4 [E,=A,E]2 [E,B,E]2 | [E,_DE]2 [E,CE]2 [E,B,]2 [B,,A,]2 | [C,G,]2 G,,2 A,,2 A,,2 | %3
 [E,,E,]8 | [E,B,]4 [E,C]2 [D,B,]2 | z4 [G,D]2 z2 | [B,D]2 z2 z4 | [B,,B,]8 | %8
 [B,,F,]4 [B,,F,]2 [B,,F,]2 | z4 G,4 | [C,G,]4 [C,G,]2 [C,G,]2 | C,2 C,2 [F,A,]4 | %12
 [A,B,F]4 [G,B,E]2[K:bass] [E,E]2 | [=E,_D]2 [F,CF]2 [G,=B,=D]4 | C2 z2 z2 B,,2 | E,8 |] %16
V:3
 x8 | x8 | z2 B,2 [CEF]2 [=B,EF]2 | x8 | x8 | x8 | x8 | x8 | x8 | [DG]2 [DF]2 z2[K:bass] _D,2 | %10
 x8 | x8 | x8 | x8 | z2 G,2 B,2- [B,DF]2 | x8 |] %16
V:4
 x8 | x8 | x8 | x8 | x8 | [B,,B,]2 [F,=A,E]2 B,2- [=E,B,_D]2 | F,2- [F,D]2 [F,_D=E]2 [F,C_E]2 | %7
 x8 | x8 | [B,,B,]2 [B,,A,]2 E,2 z2 | x8 | x8 | x6[K:bass] x2 | x8 | C,4 B,,2 z A, | x8 |] %16

